projects/oblique/icons/Briefcase.svg

<?xml version="1.0" encoding="UTF-8"?><svg id="a" xmlns="http://www.w3.org/2000/svg" viewBox="0 0 24 24"><path d="M14.42676,5.56104v-2.31104h-4.85352v2.31104H1.25049v15.18896h21.49902V5.56104h-8.32275ZM11.07324,4.75h1.85352v.81104h-1.85352v-.81104ZM21.24951,7.06104v4.18896h-6.82275v-1.5h-1.5v1.5h-1.85352v-1.5h-1.5v1.5H2.75049v-4.18896h18.49902ZM2.75049,19.25v-6.5h6.82275v1.5h1.5v-1.5h1.85352v1.5h1.5v-1.5h6.82275v6.5H2.75049Z"/></svg>

<svg xmlns="http://www.w3.org/2000/svg" viewBox="0 0 24 24"><title>Briefcase</title><path d="M14.42676,5.561V3.25H9.57324V5.561H1.25049V20.75h21.499V5.561ZM11.07324,4.75h1.85352v.811H11.07324ZM21.24951,7.061V11.25H14.42676V9.75h-1.5v1.5H11.07324V9.75h-1.5v1.5H2.75049V7.061ZM2.75049,19.25v-6.5H9.57324v1.5h1.5v-1.5h1.85352v1.5h1.5v-1.5h6.82275v6.5Z" fill="#171717"/></svg>
